X:1
T:Washington Post March
T:Washington Post March
T:J.P.Sousa
C:J.P.Sousa
L:1/8
M:6/8
K:G
V:1 treble nm="Piano" snm="Pno."
V:1
!ff! d2 ^d e3- | e2 _e d2 ^c | d2 ^d e3- | e2 _e d2 ^c | d2 ^d e2 _e | d2 ^c =c2 B | %6
 A z z !>!A z z |:!f! A z A A z A | A z A A z A | B z B B z B | B z B B z B |!mf! A6 |!<(! A6 | %13
 B6 | B6!<)! |!f! A z A A z A | A z A A z A | G z G G z G |!<(! G z G G z G!<)! | F z F F z F | %20
 G z G G z G | F z A A z A | A2 z z2 z ::!ff! c6- | c2 c c2 c | B6- | B2 B B2 B | c6- | c2 c c2 c | %29
 B6- | B2 B B2 B | c6- | c2 c c2 c | B6- | B2 B B2 B |!ff! (_B6 | =B2) B B2 B | c2 c c2 c |1 %38
 B2 z z2 z :|2 B2 (G F2 G) |:[K:C] E z (G ^F2 G) | F3 (B,3 | C3 D3) | E2 (G ^F2 G) | %44
 .E.G.c .e.c.G | F3 B,3 | G6- | G2 (G!<(! ^F2 G) | A!<)! z (A ^G2 A) | A z (A ^G2 A) | A3 (f3 | %51
 e2 ^c d2 A) | G z (G ^F2 G) | A z (A B) z G | G2 z z2 z | z2 (G ^F2 G) :: G,2 z z2 z | %57
 z2 (G ^F2 G) | G,2 z z2 z | z2 (G ^F2 G) | G,2 G ^G2 G | A2 A ^A2 A | B2 z d2 z | z6 | %64
!ff! c z c c z c | B z B B z B | c z c d z d | c z c c z c | c z c c z c | B z B B z B | %70
 c z c c z c | c z c c z c | c z c c z c | ^c z c c z c | d z d d z d | ^c z c d z d | %76
 c z c c z c | c z c B z B |1 c2 z z2 z | z2 (G ^F2 G) :|2 c2 z z2 F | E2 z E2 z |] %82

